src/assets/cards/9D.svg

<svg clip-rule="evenodd" fill-rule="evenodd" stroke-linejoin="round" stroke-miterlimit="2" viewBox="0 0 934 1300" xmlns="http://www.w3.org/2000/svg"><g fill="#d40000" fill-rule="nonzero"><path d="m137.752 240.632c41.333-40.33 68.479-84.322 94.446-126.622 22.767 46.552 55.445 87.271 90.77 126.622-37.796 39.038-67.099 80.785-90.657 124.665-26.118-44.984-53.615-85.715-94.559-124.665z"/><path d="m137.752 512.842c41.333-40.329 68.479-84.322 94.446-126.621 22.767 46.551 55.445 87.27 90.77 126.621-37.796 39.038-67.099 80.785-90.657 124.661-26.118-44.98-53.615-85.711-94.559-124.661z"/><path d="m137.752 791.583c41.333-40.34 68.479-84.322 94.446-126.62 22.767 46.541 55.445 87.259 90.77 126.62-37.796 39.035-67.099 80.776-90.657 124.657-26.118-44.981-53.615-85.715-94.559-124.657z"/><path d="m137.752 1062.86c41.333-40.34 68.479-84.326 94.446-126.625 22.767 46.543 55.445 87.265 90.77 126.625-37.796 39.03-67.099 80.77-90.657 124.65-26.118-44.98-53.615-85.71-94.559-124.65z"/><path d="m372.932 650.918c41.345-40.343 68.491-84.324 94.445-126.623 22.768 46.539 55.446 87.258 90.783 126.623-37.808 39.035-67.112 80.776-90.67 124.657-26.117-44.982-53.601-85.714-94.558-124.657z"/><path d="m602.466 240.632c41.334-40.33 68.492-84.322 94.446-126.622 22.768 46.552 55.445 87.271 90.783 126.622-37.809 39.038-67.112 80.785-90.67 124.665-26.105-44.984-53.602-85.715-94.559-124.665z"/><path d="m602.466 512.842c41.334-40.329 68.492-84.322 94.446-126.621 22.768 46.551 55.445 87.27 90.783 126.621-37.809 39.038-67.112 80.785-90.67 124.661-26.105-44.98-53.602-85.711-94.559-124.661z"/><path d="m602.466 791.583c41.334-40.34 68.492-84.322 94.446-126.62 22.768 46.541 55.445 87.259 90.783 126.62-37.809 39.035-67.112 80.776-90.67 124.657-26.105-44.981-53.602-85.715-94.559-124.657z"/><path d="m602.466 1062.86c41.334-40.34 68.492-84.326 94.446-126.625 22.768 46.543 55.445 87.265 90.783 126.625-37.809 39.03-67.112 80.77-90.67 124.65-26.105-44.98-53.602-85.71-94.559-124.65z"/><path d="m822.292 1028.64c16.934-16.52 28.061-34.541 38.699-51.867 9.32 19.064 22.705 35.747 37.181 51.867-15.492 15.99-27.485 33.09-37.144 51.07-10.7-18.43-21.952-35.12-38.736-51.07z"/><path d="m35.566 254.23c16.935-16.521 28.049-34.534 38.687-51.87 9.333 19.067 22.718 35.751 37.194 51.87-15.492 15.994-27.497 33.092-37.144 51.068-10.7-18.428-21.965-35.112-38.737-51.068z"/><path d="m36.093 164.351 12.607-3.927c4.755 12.482 14.376 16.17 24.549 15.379 18.252-1.417 24.311-21.45 25.691-39.163-7.125 7.389-17.813 11.14-26.92 10.776-29.09-1.531-36.541-24.386-36.805-48.333-.815-20.196 7.69-34.823 22.279-41.522 7.715-3.399 25.389-3.399 33.167.628 17.838 9.232 24.449 25.201 23.244 63.298.025 31.348-6.774 67.864-40.994 68.642-19.77 2.684-34.798-12.419-36.818-25.778zm49.525-34.347c5.933-3.688 9.283-7.15 11.955-12.343 2.182-4.253 2.923-6.473 2.295-15.292-1.605-22.73-13.748-35.613-31.348-33.054-9.822 1.43-15.178 6.824-18.264 16.872-5.695 18.528 1.518 40.23 15.028 45.235 6.096 2.245 15.479 1.593 20.334-1.418z"/><path d="m894.572 1135.65-12.62 3.92c-4.754-12.48-14.363-16.16-24.536-15.37-18.265 1.42-24.324 21.45-25.691 39.17 7.113-7.4 17.813-11.15 26.907-10.79 29.103 1.54 36.542 24.4 36.818 48.34.803 20.2-7.702 34.82-22.291 41.52-7.715 3.4-25.39 3.4-33.155-.62-17.85-9.24-24.449-25.21-23.257-63.3-.012-31.35 6.774-67.86 40.995-68.64 19.782-2.69 34.797 12.41 36.83 25.77zm-49.538 34.35c-5.933 3.68-9.282 7.15-11.942 12.34-2.182 4.26-2.923 6.47-2.295 15.29 1.593 22.73 13.736 35.62 31.348 33.06 9.822-1.43 15.178-6.83 18.264-16.87 5.683-18.54-1.53-40.24-15.04-45.24-6.097-2.25-15.48-1.6-20.335 1.42z"/></g></svg>

<?xml version="1.0" encoding="UTF-8" standalone="no"?>
<!DOCTYPE svg PUBLIC "-//W3C//DTD SVG 1.1//EN" "http://www.w3.org/Graphics/SVG/1.1/DTD/svg11.dtd">
<svg width="100%" height="100%" viewBox="0 0 934 1300" version="1.1" xmlns="http://www.w3.org/2000/svg" xmlns:xlink="http://www.w3.org/1999/xlink" xml:space="preserve" xmlns:serif="http://www.serif.com/" style="fill-rule:evenodd;clip-rule:evenodd;stroke-linejoin:round;stroke-miterlimit:2;">
    <g>
        <path d="M137.752,240.632C179.085,200.302 206.231,156.31 232.198,114.01C254.965,160.562 287.643,201.281 322.968,240.632C285.172,279.67 255.869,321.417 232.311,365.297C206.193,320.313 178.696,279.582 137.752,240.632Z" style="fill:rgb(212,0,0);fill-rule:nonzero;"/>
        <path d="M137.752,512.842C179.085,472.513 206.231,428.52 232.198,386.221C254.965,432.772 287.643,473.491 322.968,512.842C285.172,551.88 255.869,593.627 232.311,637.503C206.193,592.523 178.696,551.792 137.752,512.842Z" style="fill:rgb(212,0,0);fill-rule:nonzero;"/>
        <path d="M137.752,791.583C179.085,751.243 206.231,707.261 232.198,664.963C254.965,711.504 287.643,752.222 322.968,791.583C285.172,830.618 255.869,872.359 232.311,916.24C206.193,871.259 178.696,830.525 137.752,791.583Z" style="fill:rgb(212,0,0);fill-rule:nonzero;"/>
        <path d="M137.752,1062.86C179.085,1022.52 206.231,978.534 232.198,936.235C254.965,982.778 287.643,1023.5 322.968,1062.86C285.172,1101.89 255.869,1143.63 232.311,1187.51C206.193,1142.53 178.696,1101.8 137.752,1062.86Z" style="fill:rgb(212,0,0);fill-rule:nonzero;"/>
        <path d="M372.932,650.918C414.277,610.575 441.423,566.594 467.377,524.295C490.145,570.834 522.823,611.553 558.16,650.918C520.352,689.953 491.048,731.694 467.49,775.575C441.373,730.593 413.889,689.861 372.932,650.918Z" style="fill:rgb(212,0,0);fill-rule:nonzero;"/>
        <path d="M602.466,240.632C643.8,200.302 670.958,156.31 696.912,114.01C719.68,160.562 752.357,201.281 787.695,240.632C749.886,279.67 720.583,321.417 697.025,365.297C670.92,320.313 643.423,279.582 602.466,240.632Z" style="fill:rgb(212,0,0);fill-rule:nonzero;"/>
        <path d="M602.466,512.842C643.8,472.513 670.958,428.52 696.912,386.221C719.68,432.772 752.357,473.491 787.695,512.842C749.886,551.88 720.583,593.627 697.025,637.503C670.92,592.523 643.423,551.792 602.466,512.842Z" style="fill:rgb(212,0,0);fill-rule:nonzero;"/>
        <path d="M602.466,791.583C643.8,751.243 670.958,707.261 696.912,664.963C719.68,711.504 752.357,752.222 787.695,791.583C749.886,830.618 720.583,872.359 697.025,916.24C670.92,871.259 643.423,830.525 602.466,791.583Z" style="fill:rgb(212,0,0);fill-rule:nonzero;"/>
        <path d="M602.466,1062.86C643.8,1022.52 670.958,978.534 696.912,936.235C719.68,982.778 752.357,1023.5 787.695,1062.86C749.886,1101.89 720.583,1143.63 697.025,1187.51C670.92,1142.53 643.423,1101.8 602.466,1062.86Z" style="fill:rgb(212,0,0);fill-rule:nonzero;"/>
        <path d="M822.292,1028.64C839.226,1012.12 850.353,994.099 860.991,976.773C870.311,995.837 883.696,1012.52 898.172,1028.64C882.68,1044.63 870.687,1061.73 861.028,1079.71C850.328,1061.28 839.076,1044.59 822.292,1028.64Z" style="fill:rgb(212,0,0);fill-rule:nonzero;"/>
        <path d="M35.566,254.23C52.501,237.709 63.615,219.696 74.253,202.36C83.586,221.427 96.971,238.111 111.447,254.23C95.955,270.224 83.95,287.322 74.303,305.298C63.603,286.87 52.338,270.186 35.566,254.23Z" style="fill:rgb(212,0,0);fill-rule:nonzero;"/>
        <path d="M36.093,164.351L48.7,160.424C53.455,172.906 63.076,176.594 73.249,175.803C91.501,174.386 97.56,154.353 98.94,136.64C91.815,144.029 81.127,147.78 72.02,147.416C42.93,145.885 35.479,123.03 35.215,99.083C34.4,78.887 42.905,64.26 57.494,57.561C65.209,54.162 82.883,54.162 90.661,58.189C108.499,67.421 115.11,83.39 113.905,121.487C113.93,152.835 107.131,189.351 72.911,190.129C53.141,192.813 38.113,177.71 36.093,164.351ZM85.618,130.004C91.551,126.316 94.901,122.854 97.573,117.661C99.755,113.408 100.496,111.188 99.868,102.369C98.263,79.639 86.12,66.756 68.52,69.315C58.698,70.745 53.342,76.139 50.256,86.187C44.561,104.715 51.774,126.417 65.284,131.422C71.38,133.667 80.763,133.015 85.618,130.004Z" style="fill:rgb(212,0,0);fill-rule:nonzero;"/>
        <path d="M894.572,1135.65L881.952,1139.57C877.198,1127.09 867.589,1123.41 857.416,1124.2C839.151,1125.62 833.092,1145.65 831.725,1163.37C838.838,1155.97 849.538,1152.22 858.632,1152.58C887.735,1154.12 895.174,1176.98 895.45,1200.92C896.253,1221.12 887.748,1235.74 873.159,1242.44C865.444,1245.84 847.769,1245.84 840.004,1241.82C822.154,1232.58 815.555,1216.61 816.747,1178.52C816.735,1147.17 823.521,1110.66 857.742,1109.88C877.524,1107.19 892.539,1122.29 894.572,1135.65ZM845.034,1170C839.101,1173.68 835.752,1177.15 833.092,1182.34C830.91,1186.6 830.169,1188.81 830.797,1197.63C832.39,1220.36 844.533,1233.25 862.145,1230.69C871.967,1229.26 877.323,1223.86 880.409,1213.82C886.092,1195.28 878.879,1173.58 865.369,1168.58C859.272,1166.33 849.889,1166.98 845.034,1170Z" style="fill:rgb(212,0,0);fill-rule:nonzero;"/>
    </g>
</svg>
